static/images/team/juan/tribal.svg

<svg xmlns="http://www.w3.org/2000/svg" width="107" height="135" fill="none" viewBox="0 0 107 135"><g clip-path="url(#clip0)"><path fill="#FCDCD9" d="M94.2002 46.91C96.0302 45.06 97.7202 42.94 99.8402 41.4C100.91 40.62 103.19 39.63 104.23 40.7C105.25 41.75 104.16 43.84 103.43 44.97C102 47.17 100.07 49.05 98.2102 51.22C100.66 53.42 103.12 55.2 104.97 57.48C105.94 58.67 107.41 61.19 106.21 62.41C104.95 63.7 102.38 62.13 100.97 61.21C98.5202 59.62 96.4702 57.41 94.3202 55.52C88.7502 59.93 82.9902 63.81 86.6002 72.58C91.5902 72.58 97.0602 72.42 102.5 72.68C104.02 72.75 106.88 73.13 106.98 74.79C107.08 76.57 104.01 77.51 102.49 77.56C89.1702 77.97 75.8502 78.15 62.5302 78.14C61.1502 78.14 58.3802 77.11 58.3802 75.43C58.3902 73.82 61.0202 72.92 62.4002 72.85C68.1902 72.56 74.0102 72.73 79.6602 72.73C82.1202 64.24 81.3602 62.64 71.7602 55.66C69.0102 58.13 66.3502 60.88 63.3002 63.07C62.2102 63.85 59.5902 64.58 58.5402 63.35C57.5602 62.2 58.6202 59.95 59.4802 58.99C61.8902 56.33 64.7402 54.07 67.7102 51.39C64.8902 49.19 62.3702 47.53 60.2502 45.46C59.1602 44.39 57.1702 42.47 58.0902 41.13C59.0802 39.68 61.8502 40.9 63.2902 41.64C66.2002 43.14 68.7902 45.24 71.4502 47.05C76.9702 43.2 80.3502 38.62 79.1802 31.59C78.9902 30.46 79.7002 27.91 81.1502 27.77C82.7502 27.61 84.1802 30.34 84.0602 31.46C83.2802 39.18 86.6702 44.07 94.2002 46.91ZM76.1002 51.48C78.4502 53.43 80.8102 55.39 83.8202 57.89C85.9102 55.74 87.8302 53.76 89.7602 51.78C81.9302 44.16 81.6102 44.16 76.1002 51.48Z"/><path fill="#FCDCD9" d="M11.41 65.68C14.49 66.01 16.7 65.93 18.69 66.56C20.27 67.06 22.39 68.18 22.78 69.47C23.16 70.72 21.99 72.88 20.88 74.06C17.77 77.39 14.34 80.43 10.5 84.1C20.63 84.1 29.72 84.08 38.81 84.11C42.29 84.12 45.79 83.99 49.23 84.39C50.5 84.54 52.71 85.45 52.8 86.93C52.89 88.46 50.71 89.68 49.44 89.94C47.22 90.4 44.82 89.93 42.49 89.93C29.65 89.94 16.83 90.02 3.99998 89.96C2.70998 89.95 0.699984 89.87 0.139984 88.62C-0.410016 87.38 0.839984 85.79 1.71998 84.9C5.81998 80.79 10.12 76.88 15.35 71.95C11.62 71.49 9.23998 71.35 6.93998 70.88C2.99998 70.06 2.29998 68.05 4.94998 65.03C7.97998 61.59 11.2 58.31 14.71 54.56C11.33 53.96 8.37998 53.65 5.55998 52.89C2.02998 51.95 1.36998 49.65 3.99998 47.08C8.50998 42.67 13.2 38.43 18 34.33C18.82 33.63 20.99 32.93 21.88 33.91C22.83 34.96 21.84 37.17 21.01 38.02C17.72 41.4 14.11 44.47 9.94998 48.26C13.8 48.9 16.57 49.19 19.25 49.84C23.8 50.95 24.41 53 21.16 56.35C18.19 59.39 15.03 62.23 11.41 65.68Z"/><path fill="#FCDCD9" d="M81.5001 17.11C86.9501 12.93 92.2401 8.66003 97.8001 4.77003C99.4801 3.59003 101.97 2.98003 103.99 3.17003C104.71 3.24003 105.55 6.44003 105.61 8.24003C105.82 15.05 105.77 21.86 105.75 28.68C105.74 32.78 103.87 34.21 100.13 32.63C94.9401 30.44 89.9801 27.69 84.7401 25.62C82.8801 24.89 80.2601 24.84 78.4101 25.57C73.3201 27.55 68.5001 30.21 63.4901 32.4C59.1101 34.31 57.3001 32.97 57.3501 28.29C57.4301 21.32 57.3601 14.34 57.5301 7.37003C57.5701 5.88003 58.1701 3.33003 58.9401 3.15003C60.6201 2.77003 62.9601 3.05003 64.3501 4.03003C70.1501 8.16003 75.7101 12.64 81.5001 17.11ZM100.49 9.59003C95.7101 13.31 91.5901 16.53 87.1301 20.01C92.0501 22.46 96.1401 24.5 100.49 26.67C100.49 20.97 100.49 15.68 100.49 9.59003ZM76.0301 19.96C71.4701 16.51 67.3801 13.42 62.7201 9.89003C62.7201 15.98 62.7201 21.16 62.7201 26.62C67.1901 24.38 71.1801 22.39 76.0301 19.96Z"/><path fill="#FCDCD9" d="M61.4098 118.96C58.5798 115.68 57.8098 112.61 60.2098 109.14C60.6698 108.47 60.6798 106.97 60.2298 106.3C57.6498 102.44 58.5798 99.07 61.4098 95.97C56.7598 88.62 59.7498 83.04 68.4398 82.71C70.5998 82.63 72.8498 82.57 74.8998 83.12C76.3598 83.51 78.9798 84.3 78.8398 85.92C78.7198 87.41 76.2398 87.7 74.8398 87.89C71.5598 88.33 68.2198 88.33 64.8998 88.51C64.7298 89.36 63.9698 90.3 64.3898 91.06C65.8698 93.71 70.1398 93.04 72.9098 94.28C74.5398 95.01 77.5298 95.43 77.4398 97.24C77.3398 99.15 74.1498 99.3 72.3498 99.84C70.9798 100.26 69.3298 99.67 67.8898 99.96C66.7998 100.18 65.0298 100.49 64.8098 101.65C64.5798 102.87 66.2098 104.14 67.1998 104.44C69.5498 105.15 72.1098 105.11 74.4998 105.72C75.7298 106.04 77.7398 106.51 77.8798 107.83C78.0298 109.28 75.9498 110.54 74.7498 110.79C71.4998 111.48 68.1298 111.57 64.7998 111.9C64.6998 112.65 64.5998 113.4 64.4998 114.15C67.2698 115.05 70.1498 115.72 72.7798 116.92C74.5198 117.72 77.7198 118.56 77.4498 120.51C77.1998 122.32 74.1398 122.22 72.3798 122.59C69.7398 123.14 67.0198 123.26 64.3298 123.56C64.1898 124.26 64.0498 124.95 63.9098 125.65C66.4598 126.69 68.9698 127.87 71.5898 128.72C73.1398 129.22 74.9498 128.94 76.4798 129.49C77.3698 129.81 78.6598 131.27 78.4898 131.85C78.1898 132.9 76.9698 134.4 76.0698 134.44C70.1298 134.71 64.2798 134.01 60.0898 129.16C57.0098 125.57 57.1798 121.87 61.4098 118.96Z"/><path fill="#FCDCD9" d="M43.8 16.43C46.84 19.75 49.56 22.44 51.9 25.44C52.67 26.43 53.76 28.62 52.71 29.58C51.6 30.6 49.51 29.2 48.41 28.36C45.54 26.17 42.95 23.61 40.13 21.1C37.2 23.49 34.78 25.78 32.02 27.56C30.96 28.24 28.6 28.94 27.68 27.8C26.76 26.66 27.94 24.58 28.79 23.61C30.83 21.28 33.32 19.33 36.3 16.6C33.42 13.98 30.68 11.81 28.38 9.23998C27.52 8.26998 26.4 6.02998 27.4 4.90998C28.48 3.68998 31.22 4.54998 32.16 5.41998C34.57 7.63998 36.42 10.47 38.6 13.19C42.11 10.03 44.27 7.67998 46.85 5.92998C48.31 4.93998 50.94 3.15998 52.26 4.49998C53.6 5.85998 51.82 8.58998 50.73 9.94998C48.8 12.37 46.2 14.26 43.8 16.43Z"/><path fill="#FCDCD9" d="M37.7701 56.91C37.7701 50.91 37.6201 44.9 37.8801 38.92C37.9401 37.5 38.6501 34.77 40.2601 34.76C41.8901 34.75 42.7001 37.53 42.7201 38.93C42.8801 50.76 42.8401 62.59 42.6001 74.42C42.5701 76.01 41.9901 79.19 40.2101 79.15C38.4601 79.11 38.1301 76.01 38.0501 74.4C37.7901 68.58 37.8301 56.91 37.7701 56.91Z"/><path fill="#FCDCD9" d="M53.05 75.32C53 76.62 52.42 79.04 50.95 79.14C49.52 79.24 48.45 76.87 48.44 75.72C48.33 63.59 48.4 51.46 48.67 39.34C48.7 37.83 49.36 34.72 51.06 34.85C52.85 34.98 52.82 38.19 52.89 39.89C53.12 45.71 53.27 69.34 53.05 75.32Z"/><path fill="#FCDCD9" d="M33.1698 57.36C33.1698 63.18 33.3098 69 33.0698 74.81C33.0098 76.28 32.6098 79.07 30.9998 79.14C29.4498 79.21 28.6698 76.51 28.6598 75.17C28.5098 63.05 28.5598 50.93 28.7398 38.81C28.7598 37.47 29.1498 34.87 30.6398 34.82C32.2198 34.77 32.8698 37.52 32.9198 38.91C33.1698 45.05 33.0298 51.2 33.0298 57.35C33.0698 57.36 33.1198 57.36 33.1698 57.36Z"/><path fill="#FCDCD9" d="M97.76 99.88C97.76 103.85 97.99 107.85 97.63 111.78C97.51 113.12 96.51 115.63 94.93 115.59C93.47 115.56 92.6 113.18 92.58 111.95C92.43 103.85 92.47 95.74 92.77 87.64C92.82 86.33 93.8 83.7 95.37 83.79C96.95 83.88 97.44 86.53 97.55 87.96C97.85 91.91 97.65 95.9 97.65 99.87C97.69 99.88 97.73 99.88 97.76 99.88Z"/><path fill="#FCDCD9" d="M87.8102 111.45C87.6602 112.96 86.6402 115.85 84.8802 115.75C83.2902 115.65 82.7402 112.97 82.6802 111.54C82.4002 103.76 82.4302 95.96 82.3902 88.18C82.3902 87.2 82.3402 86.03 82.8202 85.27C83.4402 84.3 84.3002 82.72 85.4902 82.89C86.7602 83.08 87.4102 85.03 87.4702 86.14C87.7202 90.43 88.2202 107.35 87.8102 111.45Z"/><path fill="#FCDCD9" d="M106.84 99.43C106.84 103.58 107.03 107.75 106.72 111.87C106.62 113.13 105.74 115.46 104.26 115.48C102.77 115.5 101.7 113.11 101.68 111.9C101.5 103.27 101.57 94.63 101.82 86.01C101.85 84.96 102.89 82.94 104.21 82.92C105.56 82.9 106.66 84.91 106.72 85.98C107.01 90.45 106.84 94.94 106.84 99.43Z"/><path fill="#FCDCD9" d="M22.1301 24.22C21.9601 25.53 21.2901 27.87 19.8201 27.91C18.4001 27.95 17.4801 25.66 17.4001 24.46C17.0001 18.69 16.8101 12.88 16.9501 7.09997C16.9801 5.75997 17.9201 3.11997 19.5101 3.14997C20.9701 3.17997 21.5601 5.55997 21.7101 6.86997C22.0501 9.81997 22.4901 21.46 22.1301 24.22Z"/><path fill="#FCDCD9" d="M81.54 -2.88524e-06C83.96 -0.0900029 85.16 3.17 84.94 3.81C84.48 5.15 82.94 6.82 81.68 6.97C80.59 7.1 78.24 5.91 78.06 4.39C77.87 2.82 79.11 0.0999971 81.54 -2.88524e-06Z"/></g><defs><clipPath id="clip0"><rect width="106.97" height="134.48" fill="#fff"/></clipPath></defs></svg>

<svg xmlns="http://www.w3.org/2000/svg" width="107" height="135" fill="none"><g clip-path="url(#clip0)" fill="#FCDCD9"><path d="M94.2 46.91c1.83-1.85 3.52-3.97 5.64-5.51 1.07-.78 3.35-1.77 4.39-.7 1.02 1.05-.07 3.14-.8 4.27-1.43 2.2-3.36 4.08-5.22 6.25 2.45 2.2 4.91 3.98 6.76 6.26.97 1.19 2.44 3.71 1.24 4.93-1.26 1.29-3.83-.28-5.24-1.2-2.45-1.59-4.5-3.8-6.65-5.69-5.57 4.41-11.33 8.29-7.72 17.06 4.99 0 10.46-.16 15.9.1 1.52.07 4.38.45 4.48 2.11.1 1.78-2.97 2.72-4.49 2.77-13.32.41-26.64.59-39.96.58-1.38 0-4.15-1.03-4.15-2.71.01-1.61 2.64-2.51 4.02-2.58 5.79-.29 11.61-.12 17.26-.12 2.46-8.49 1.7-10.09-7.9-17.07-2.75 2.47-5.41 5.22-8.46 7.41-1.09.78-3.71 1.51-4.76.28-.98-1.15.08-3.4.94-4.36 2.41-2.66 5.26-4.92 8.23-7.6-2.82-2.2-5.34-3.86-7.46-5.93-1.09-1.07-3.08-2.99-2.16-4.33.99-1.45 3.76-.23 5.2.51 2.91 1.5 5.5 3.6 8.16 5.41 5.52-3.85 8.9-8.43 7.73-15.46-.19-1.13.52-3.68 1.97-3.82 1.6-.16 3.03 2.57 2.91 3.69-.78 7.72 2.61 12.61 10.14 15.45zm-18.1 4.57l7.72 6.41c2.09-2.15 4.01-4.13 5.94-6.11-7.83-7.62-8.15-7.62-13.66-.3zm-64.69 14.2c3.08.33 5.29.25 7.28.88 1.58.5 3.7 1.62 4.09 2.91.38 1.25-.79 3.41-1.9 4.59-3.11 3.33-6.54 6.37-10.38 10.04 10.13 0 19.22-.02 28.31.01 3.48.01 6.98-.12 10.42.28 1.27.15 3.48 1.06 3.57 2.54.09 1.53-2.09 2.75-3.36 3.01-2.22.46-4.62-.01-6.95-.01-12.84.01-25.66.09-38.49.03-1.29-.01-3.3-.09-3.86-1.34-.55-1.24.7-2.83 1.58-3.72 4.1-4.11 8.4-8.02 13.63-12.95-3.73-.46-6.11-.6-8.41-1.07-3.94-.82-4.64-2.83-1.99-5.85 3.03-3.44 6.25-6.72 9.76-10.47-3.38-.6-6.33-.91-9.15-1.67-3.53-.94-4.19-3.24-1.56-5.81 4.51-4.41 9.2-8.65 14-12.75.82-.7 2.99-1.4 3.88-.42.95 1.05-.04 3.26-.87 4.11-3.29 3.38-6.9 6.45-11.06 10.24 3.85.64 6.62.93 9.3 1.58 4.55 1.11 5.16 3.16 1.91 6.51-2.97 3.04-6.13 5.88-9.75 9.33z"/><path d="M81.5 17.11c5.45-4.18 10.74-8.45 16.3-12.34 1.68-1.18 4.17-1.79 6.19-1.6.72.07 1.56 3.27 1.62 5.07.21 6.81.16 13.62.14 20.44-.01 4.1-1.88 5.53-5.62 3.95-5.19-2.19-10.15-4.94-15.39-7.01-1.86-.73-4.48-.78-6.33-.05-5.09 1.98-9.91 4.64-14.92 6.83-4.38 1.91-6.19.57-6.14-4.11.08-6.97.01-13.95.18-20.92.04-1.49.64-4.04 1.41-4.22 1.68-.38 4.02-.1 5.41.88 5.8 4.13 11.36 8.61 17.15 13.08zm18.99-7.52c-4.78 3.72-8.9 6.94-13.36 10.42 4.92 2.45 9.01 4.49 13.36 6.66V9.59zM76.03 19.96c-4.56-3.45-8.65-6.54-13.31-10.07v16.73c4.47-2.24 8.46-4.23 13.31-6.66zm-14.62 99c-2.83-3.28-3.6-6.35-1.2-9.82.46-.67.47-2.17.02-2.84-2.58-3.86-1.65-7.23 1.18-10.33-4.65-7.35-1.66-12.93 7.03-13.26 2.16-.08 4.41-.14 6.46.41 1.46.39 4.08 1.18 3.94 2.8-.12 1.49-2.6 1.78-4 1.97-3.28.44-6.62.44-9.94.62-.17.85-.93 1.79-.51 2.55 1.48 2.65 5.75 1.98 8.52 3.22 1.63.73 4.62 1.15 4.53 2.96-.1 1.91-3.29 2.06-5.09 2.6-1.37.42-3.02-.17-4.46.12-1.09.22-2.86.53-3.08 1.69-.23 1.22 1.4 2.49 2.39 2.79 2.35.71 4.91.67 7.3 1.28 1.23.32 3.24.79 3.38 2.11.15 1.45-1.93 2.71-3.13 2.96-3.25.69-6.62.78-9.95 1.11l-.3 2.25c2.77.9 5.65 1.57 8.28 2.77 1.74.8 4.94 1.64 4.67 3.59-.25 1.81-3.31 1.71-5.07 2.08-2.64.55-5.36.67-8.05.97l-.42 2.09c2.55 1.04 5.06 2.22 7.68 3.07 1.55.5 3.36.22 4.89.77.89.32 2.18 1.78 2.01 2.36-.3 1.05-1.52 2.55-2.42 2.59-5.94.27-11.79-.43-15.98-5.28-3.08-3.59-2.91-7.29 1.32-10.2zM43.8 16.43c3.04 3.32 5.76 6.01 8.1 9.01.77.99 1.86 3.18.81 4.14-1.11 1.02-3.2-.38-4.3-1.22-2.87-2.19-5.46-4.75-8.28-7.26-2.93 2.39-5.35 4.68-8.11 6.46-1.06.68-3.42 1.38-4.34.24-.92-1.14.26-3.22 1.11-4.19 2.04-2.33 4.53-4.28 7.51-7.01-2.88-2.62-5.62-4.79-7.92-7.36-.86-.97-1.98-3.21-.98-4.33 1.08-1.22 3.82-.36 4.76.51 2.41 2.22 4.26 5.05 6.44 7.77 3.51-3.16 5.67-5.51 8.25-7.26 1.46-.99 4.09-2.77 5.41-1.43 1.34 1.36-.44 4.09-1.53 5.45-1.93 2.42-4.53 4.31-6.93 6.48zm-6.03 40.48c0-6-.15-12.01.11-17.99.06-1.42.77-4.15 2.38-4.16 1.63-.01 2.44 2.77 2.46 4.17.16 11.83.12 23.66-.12 35.49-.03 1.59-.61 4.77-2.39 4.73-1.75-.04-2.08-3.14-2.16-4.75-.26-5.82-.22-17.49-.28-17.49zm15.28 18.41c-.05 1.3-.63 3.72-2.1 3.82-1.43.1-2.5-2.27-2.51-3.42-.11-12.13-.04-24.26.23-36.38.03-1.51.69-4.62 2.39-4.49 1.79.13 1.76 3.34 1.83 5.04.23 5.82.38 29.45.16 35.43zM33.17 57.36c0 5.82.14 11.64-.1 17.45-.06 1.47-.46 4.26-2.07 4.33-1.55.07-2.33-2.63-2.34-3.97-.15-12.12-.1-24.24.08-36.36.02-1.34.41-3.94 1.9-3.99 1.58-.05 2.23 2.7 2.28 4.09.25 6.14.11 12.29.11 18.44.04.01.09.01.14.01zm64.59 42.52c0 3.97.23 7.97-.13 11.9-.12 1.34-1.12 3.85-2.7 3.81-1.46-.03-2.33-2.41-2.35-3.64-.15-8.1-.11-16.21.19-24.31.05-1.31 1.03-3.94 2.6-3.85 1.58.09 2.07 2.74 2.18 4.17.3 3.95.1 7.94.1 11.91.04.01.08.01.11.01zm-9.95 11.57c-.15 1.51-1.17 4.4-2.93 4.3-1.59-.1-2.14-2.78-2.2-4.21-.28-7.78-.25-15.58-.29-23.36 0-.98-.05-2.15.43-2.91.62-.97 1.48-2.55 2.67-2.38 1.27.19 1.92 2.14 1.98 3.25.25 4.29.75 21.21.34 25.31zm19.03-12.02c0 4.15.19 8.32-.12 12.44-.1 1.26-.98 3.59-2.46 3.61-1.49.02-2.56-2.37-2.58-3.58-.18-8.63-.11-17.27.14-25.89.03-1.05 1.07-3.07 2.39-3.09 1.35-.02 2.45 1.99 2.51 3.06.29 4.47.12 8.96.12 13.45zM22.13 24.22c-.17 1.31-.84 3.65-2.31 3.69-1.42.04-2.34-2.25-2.42-3.45-.4-5.77-.59-11.58-.45-17.36.03-1.34.97-3.98 2.56-3.95 1.46.03 2.05 2.41 2.2 3.72.34 2.95.78 14.59.42 17.35z"/><path d="M81.54 0c2.42-.09 3.62 3.17 3.4 3.81-.46 1.34-2 3.01-3.26 3.16-1.09.13-3.44-1.06-3.62-2.58C77.87 2.82 79.11.1 81.54 0z"/></g><defs><clipPath id="clip0"><path fill="#fff" d="M0 0H106.97V134.48H0z"/></clipPath></defs></svg>
